; generated by PrusaSlicer 2.7.1+MacOS-arm64 on 2024-02-04 at 15:54:38 UTC

; 

; external perimeters extrusion width = 0.45mm
; perimeters extrusion width = 0.45mm
; infill extrusion width = 0.45mm
; solid infill extrusion width = 0.45mm
; top infill extrusion width = 0.40mm
; first layer extrusion width = 0.42mm

M73 P0 R180
M73 Q0 S182

; printing object support.stl id:0 copy 0
; stop printing object support.stl id:0 copy 0

;TYPE:Custom
M862.3 P "MK3S" ; printer model check
M862.1 P0.4 ; nozzle diameter check
M115 U3.10.0 ; tell printer latest fw version
G90 ; use absolute coordinates
M83 ; extruder relative mode
M104 S215 ; set extruder temp
M140 S60 ; set bed temp
M190 S60 ; wait for bed temp
M109 S215 ; wait for extruder temp
G28 W ; home all without mesh bed level
G80 ; mesh bed leveling
G1 Y-3.0 F1000.0 ; go outside print area
G92 E0.0
G1 X60.0 E9.0 F1000.0 ; intro line
G1 X100.0 E12.5 F1000.0 ; intro line
G92 E0.0
M221 S95

; Don't change E values below. Excessive value can damage the printer.
M907 E430 ; set extruder motor current
G21 ; set units to millimeters
G90 ; use absolute coordinates
M83 ; use relative distances for extrusion
M900 K0.05 ; Filament gcode LA 1.5
M900 K30 ; Filament gcode LA 1.0
M107
;LAYER_CHANGE
;Z:0.2
;HEIGHT:0.2
;BEFORE_LAYER_CHANGE
G92 E0.0
;0.2


G1 E-.8 F2100
G1 Z.2 F10800
;AFTER_LAYER_CHANGE
;0.2
G1 X79.846 Y40.994
G1 Z.2
G1 E.8 F2100
M204 S1000
;TYPE:Skirt/Brim
;WIDTH:0.42
G1 F1200
G1 X81 Y40.267 E.04276
G1 X82.365 Y40.294 E.04281
G1 X83.317 Y40.876 E.03499
G1 X183.317 Y140.876 E4.43417
G1 X183.965 Y142.077 E.04279
M73 P0 R179
G1 X183.845 Y143.437 E.04281
G1 X182.955 Y144.535 E.04432
G1 X170.955 Y152.535 E.4522
G1 X170.009 Y152.905 E.03185
G1 X73.009 Y168.29 E3.07938
G1 X69.637 Y168.319 E.10573
G1 X68.329 Y167.928 E.0428
G1 X67.453 Y166.882 E.04278
G1 X67.259 Y165.942 E.03009
G1 X67.281 Y130.236 E1.11954
G1 X79.281 Y42.236 E2.78471
G1 X79.821 Y41.048 E.04092
; printing object support.stl id:0 copy 0
;WIPE_START
G1 F8640
G1 X79.846 Y40.994 E-.01374
G1 X81 Y40.267 E-.31493
G1 X82.365 Y40.294 E-.31524
G1 X82.942 Y40.647 E-.15609
;WIPE_END
G1 Z.6 F10800
G1 X82.796 Y45.358
G1 Z.2
G1 E.8 F2100
;TYPE:Perimeter
;WIDTH:0.419999
G1 F1200
G1 X178.837 Y141.397 E4.25857
G1 X169.415 Y141.393 E.29542
M73 Q0 S181
G1 X169.333 Y141.397 E.00257
G1 X168.982 Y141.498 E.01145
G1 X168.737 Y141.681 E.00959
G1 X168.523 Y142.03 E.01284
G1 X168.472 Y142.336 E.00973
G1 X168.472 Y149.393 E.22127
G1 X160.801 Y149.393 E.24052
G1 X160.79 Y142.194 E.22572
G1 X160.669 Y141.855 E.01129
G1 X160.436 Y141.591 E.01104
G1 X160.094 Y141.423 E.01195
G1 X159.858 Y141.393 E.00746
G1 X82.801 Y141.393 E2.41606
G1 X82.788 Y138.18 E.10074
G1 X82.667 Y137.851 E.01099
G1 X82.537 Y137.682 E.00669
G1 X82.218 Y137.464 E.01211
G1 X81.858 Y137.393 E.0115
G1 X72.415 Y137.393 E.29608
G1 X72.052 Y137.466 E.01161
G1 X71.661 Y137.77 E.01553
;WIDTH:0.4691
G1 X71.573 Y137.959 E.00739
;WIDTH:0.518201
G1 X71.486 Y138.147 E.00819
;WIDTH:0.567302
G1 X71.399 Y138.336 E.00907
G1 X71.399 Y164.479 E1.1399
G1 X70.874 Y164.479 E.02289
G1 X70.874 Y138.336 E1.1399
G1 X70.85 Y138.052 E.01243
;WIDTH:0.518201
G1 X70.825 Y137.767 E.01131
;WIDTH:0.4691
G1 X70.801 Y137.483 E.0101
;WIDTH:0.419999
G1 X70.801 Y131.721 E.18066
G1 X81.858 Y131.721 E.34668
G1 X82.048 Y131.702 E.00599
G1 X82.301 Y131.611 E.00843
G1 X82.603 Y131.357 E.01237
G1 X82.771 Y131.015 E.01195
G1 X82.801 Y130.779 E.00746
G1 X82.796 Y45.418 E2.67643
;WIPE_START
G1 F8640
G1 X82.796 Y45.358 E-.01385
G1 X85.203 Y47.765 E-.78615
;WIPE_END
G1 Z.6 F10800
G1 X82.375 Y44.353
G1 Z.2
G1 E.8 F2100
G1 F1200
G1 X82.684 Y44.708 E.01476
G1 X83.385 Y45.419 E.03131
G1 X178.964 Y140.998 E4.23813
G1 X179.858 Y141.821 E.0381
G1 X179.137 Y141.774 E.02265
G1 X169.415 Y141.77 E.30483
G1 X169.273 Y141.788 E.00449
G1 X169.068 Y141.889 E.00717
G1 X168.929 Y142.047 E.0066
G1 X168.849 Y142.336 E.0094
G1 X168.849 Y149.77 E.23309
G1 X160.424 Y149.77 E.26416
G1 X160.424 Y142.336 E.23309
G1 X160.393 Y142.153 E.00582
G1 X160.265 Y141.943 E.00771
G1 X160.118 Y141.833 E.00576
G1 X159.858 Y141.77 E.00839
G1 X82.424 Y141.77 E2.42788
G1 X82.424 Y138.51 E.10221
G1 X82.393 Y138.153 E.01124
G1 X82.266 Y137.944 E.00767
G1 X82.074 Y137.813 E.00729
G1 X81.858 Y137.77 E.00691
G1 X72.415 Y137.77 E.29608
G1 X72.198 Y137.814 E.00694
G1 X71.963 Y137.996 E.00932
G1 X71.849 Y138.336 E.01124
G1 X71.849 Y164.93 E.83383
G1 X70.424 Y164.93 E.04468
G1 X70.424 Y131.344 E1.05306
G1 X81.858 Y131.344 E.3585
G1 X81.972 Y131.333 E.00359
G1 X82.178 Y131.245 E.00702
G1 X82.36 Y131.039 E.00862
G1 X82.424 Y130.779 E.0084
G1 X82.423 Y45.821 E2.66379
G1 X82.377 Y44.413 E.04417
;WIPE_START
G1 F8640
G1 X82.375 Y44.353 E-.01386
G1 X82.684 Y44.708 E-.10867
G1 X83.385 Y45.419 E-.23055
G1 X84.754 Y46.788 E-.44692
;WIPE_END
G1 Z.6 F10800
G1 X81.85 Y43.072
G1 Z.2
G1 E.8 F2100
;TYPE:External perimeter
G1 F1200
G1 X82.168 Y43.415 E.01467
G1 X82.616 Y44.055 E.02449
G1 X82.953 Y44.443 E.01611
G1 X83.654 Y45.154 E.03131
G1 X179.231 Y140.731 E4.23804
G1 X179.975 Y141.435 E.03212
M73 P0 R178
G1 X180.78 Y142.004 E.03091
G1 X181.123 Y142.344 E.01514
G1 X180.659 Y142.347 E.01455
G1 X180.165 Y142.242 E.01584
G1 X179.64 Y142.173 E.0166
G1 X179.137 Y142.151 E.01579
G1 X169.415 Y142.147 E.30483
G1 X169.299 Y142.187 E.00385
G1 X169.227 Y142.336 E.00519
G1 X169.227 Y150.147 E.24491
G1 X160.047 Y150.147 E.28783
G1 X160.047 Y142.336 E.24491
G1 X159.994 Y142.205 E.00443
G1 X159.858 Y142.147 E.00464
G1 X82.047 Y142.147 E2.43971
G1 X82.047 Y138.336 E.11949
G1 X81.994 Y138.205 E.00443
G1 X81.858 Y138.147 E.00464
G1 X72.415 Y138.147 E.29608
G1 X72.264 Y138.223 E.0053
G1 X72.227 Y138.336 E.00373
G1 X72.227 Y165.307 E.84566
G1 X70.047 Y165.307 E.06835
G1 X70.047 Y130.967 E1.0767
G1 X81.858 Y130.967 E.37032
G1 X81.989 Y130.914 E.00443
M73 Q0 S180
G1 X82.047 Y130.779 E.00461
G1 X82.046 Y45.552 E2.67223
G1 X82.026 Y44.79 E.0239
G1 X81.985 Y44.28 E.01604
G1 X81.85 Y43.553 E.02318
G1 X81.85 Y43.132 E.0132
;WIPE_START
G1 F8640
G1 X81.85 Y43.072 E-.01385
G1 X82.168 Y43.415 E-.108
G1 X82.616 Y44.055 E-.18039
G1 X82.953 Y44.443 E-.11867
G1 X83.654 Y45.154 E-.23055
G1 X84.109 Y45.609 E-.14854
;WIPE_END
G1 Z.6 F10800
G1 X172.827 Y137.475
G1 Z.2
G1 E.8 F2100
;TYPE:Perimeter
G1 F1200
G1 X172.839 Y137.555 E.00254
G1 X172.769 Y137.866 E.01
G1 X172.553 Y138.325 E.01591
G1 X172.364 Y138.522 E.00856
G1 X172.099 Y138.667 E.00947
G1 X171.784 Y138.721 E.01002
G1 X169.415 Y138.721 E.07428
G1 X169.179 Y138.691 E.00746
G1 X168.837 Y138.523 E.01195
G1 X168.586 Y138.228 E.01214
G1 X168.472 Y137.721 E.01629
G1 X160.801 Y137.721 E.24052
G1 X160.687 Y138.228 E.01629
G1 X160.436 Y138.523 E.01214
G1 X160.094 Y138.691 E.01195
G1 X159.858 Y138.721 E.00746
G1 X89.489 Y138.721 E2.20637
G1 X89.182 Y138.67 E.00976
G1 X88.922 Y138.532 E.00923
G1 X88.733 Y138.343 E.00838
G1 X88.504 Y137.866 E.01659
G1 X88.433 Y137.527 E.01086
G1 X88.48 Y137.209 E.01008
G1 X88.709 Y136.839 E.01364
G1 X129.97 Y95.577 E1.8296
G1 X130.154 Y95.434 E.00731
G1 X130.343 Y95.348 E.00651
G1 X130.814 Y95.318 E.0148
G1 X131.178 Y95.472 E.01239
G1 X131.303 Y95.577 E.00512
G1 X172.564 Y136.839 E1.8296
G1 X172.784 Y137.185 E.01286
G1 X172.819 Y137.416 E.00733
G1 X172.457 Y137.495 F10800
G1 F1200
G1 X172.463 Y137.535 E.00127
G1 X172.307 Y137.995 E.01523
G1 X172.132 Y138.225 E.00906
G1 X171.882 Y138.336 E.00858
G1 X169.415 Y138.344 E.07735
G1 X169.155 Y138.281 E.00839
G1 X169.008 Y138.172 E.00574
G1 X168.918 Y138.048 E.0048
G1 X168.849 Y137.779 E.00871
G1 X168.849 Y137.344 E.01364
G1 X160.424 Y137.344 E.26416
G1 X160.424 Y137.779 E.01364
G1 X160.355 Y138.048 E.00871
G1 X160.205 Y138.226 E.0073
G1 X160 Y138.326 E.00715
G1 X159.858 Y138.344 E.00449
G1 X89.489 Y138.344 E2.20637
G1 X89.305 Y138.314 E.00585
G1 X89.149 Y138.231 E.00554
G1 X88.966 Y137.995 E.00936
G1 X88.81 Y137.536 E.0152
G1 X88.838 Y137.327 E.00661
G1 X88.975 Y137.105 E.00818
G1 X130.237 Y95.844 E1.8296
G1 X130.461 Y95.706 E.00825
M73 P1 R178
M73 Q1 S180
G1 X130.743 Y95.688 E.00886
G1 X131.036 Y95.844 E.01041
G1 X172.298 Y137.105 E1.8296
G1 X172.43 Y137.313 E.00772
G1 X172.448 Y137.435 E.00387
G1 X172.086 Y137.515 F10800
;TYPE:External perimeter
G1 F1200
G1 X171.938 Y137.888 E.01258
G1 X171.817 Y137.964 E.00448
G1 X169.415 Y137.967 E.07531
G1 X169.279 Y137.91 E.00462
G1 X169.227 Y137.779 E.00442
G1 X169.227 Y136.967 E.02546
G1 X160.047 Y136.967 E.28783
G1 X160.047 Y137.779 E.02546
G1 X159.974 Y137.928 E.0052
G1 X159.858 Y137.967 E.00384
G1 X89.489 Y137.967 E2.20637
G1 X89.338 Y137.891 E.0053
G1 X89.187 Y137.51 E.01285
G1 X89.242 Y137.372 E.00466
G1 X130.503 Y96.111 E1.82958
G1 X130.672 Y96.059 E.00554
G1 X130.77 Y96.111 E.00348
G1 X172.031 Y137.372 E1.82958
G1 X172.065 Y137.459 E.00293
;WIPE_START
G1 F8640
G1 X172.086 Y137.515 E-.01381
G1 X171.938 Y137.888 E-.09266
G1 X171.817 Y137.964 E-.03299
G1 X169.415 Y137.967 E-.55463
G1 X169.279 Y137.91 E-.03405
G1 X169.227 Y137.779 E-.03254
G1 X169.227 Y137.609 E-.03932
;WIPE_END
G1 Z.6 F10800
G1 X86.254 Y131.672
G1 Z.2
G1 E.8 F2100
;TYPE:Perimeter
G1 F1200
G1 X85.966 Y131.608 E.00925
G1 X85.67 Y131.357 E.01217
G1 X85.502 Y131.015 E.01195
G1 X85.472 Y130.779 E.00746
G1 X85.472 Y52.409 E2.45723
G1 X85.527 Y52.094 E.01003
G1 X85.672 Y51.829 E.00947
G1 X85.869 Y51.641 E.00854
G1 X86.328 Y51.425 E.01591
G1 X86.639 Y51.355 E.01
G1 X87.009 Y51.409 E.01172
G1 X87.355 Y51.629 E.01286
G1 X128.616 Y92.891 E1.8296
G1 X128.876 Y93.38 E.01736
G1 X128.846 Y93.85 E.01477
G1 X128.76 Y94.04 E.00654
G1 X128.616 Y94.224 E.00733
G1 X88.355 Y134.485 E1.78524
G1 X88.071 Y134.68 E.0108
M73 P1 R177
G1 X87.757 Y134.759 E.01015
G1 X87.328 Y134.689 E.01363
G1 X86.955 Y134.528 E.01274
G1 X86.746 Y134.369 E.00823
G1 X86.548 Y134.076 E.01109
G1 X86.472 Y133.705 E.01187
G1 X86.472 Y131.721 E.06221
G1 X86.313 Y131.686 E.0051
G1 X86.329 Y131.322 F10800
G1 F1200
G1 X86.146 Y131.276 E.00592
G1 X85.968 Y131.125 E.00732
G1 X85.867 Y130.92 E.00717
G1 X85.849 Y130.779 E.00446
G1 X85.849 Y52.409 E2.45723
G1 X85.882 Y52.22 E.00602
G1 X85.969 Y52.061 E.00568
G1 X86.199 Y51.887 E.00904
G1 X86.659 Y51.731 E.01523
G1 X86.881 Y51.764 E.00704
G1 X87.088 Y51.896 E.0077
G1 X128.35 Y93.157 E1.8296
G1 X128.505 Y93.451 E.01042
G1 X128.487 Y93.733 E.00886
G1 X128.35 Y93.957 E.00823
G1 X88.088 Y134.218 E1.78526
G1 X87.918 Y134.335 E.00647
G1 X87.73 Y134.383 E.00608
G1 X87.472 Y134.341 E.0082
G1 X87.042 Y134.13 E.01502
G1 X86.895 Y133.928 E.00783
G1 X86.849 Y133.705 E.00714
G1 X86.849 Y131.344 E.07403
G1 X86.415 Y131.344 E.01361
G1 X86.387 Y131.337 E.0009
G1 X86.415 Y130.967 F10800
;TYPE:External perimeter
G1 F1200
G1 X86.266 Y130.894 E.0052
G1 X86.227 Y130.779 E.00381
G1 X86.227 Y52.409 E2.45723
G1 X86.306 Y52.256 E.0054
M73 Q1 S179
G1 X86.679 Y52.108 E.01258
G1 X86.822 Y52.163 E.0048
G1 X128.083 Y93.424 E1.82958
G1 X128.135 Y93.522 E.00348
G1 X128.083 Y93.69 E.00551
G1 X87.822 Y133.952 E1.78526
G1 X87.702 Y134.006 E.00413
G1 X87.323 Y133.87 E.01263
G1 X87.231 Y133.744 E.00489
G1 X87.227 Y130.967 E.08707
G1 X86.475 Y130.967 E.02358
;WIPE_START
G1 F8640
G1 X86.415 Y130.967 E-.01385
G1 X86.266 Y130.894 E-.03831
G1 X86.227 Y130.779 E-.02804
G1 X86.227 Y127.662 E-.7198
;WIPE_END
G1 Z.6 F10800
G1 X82.914 Y45.882
G1 Z.2
G1 E.8 F2100
;TYPE:Solid infill
;WIDTH:0.421729
G1 F1200
G1 X178.146 Y141.114 E4.24211
G1 X177.61 Y141.113 E.01688
G1 X83.083 Y46.587 E4.21069
G1 X83.083 Y47.123 E.01688
G1 X177.074 Y141.113 E4.18681
G1 X176.538 Y141.113 E.01688
G1 X173.099 Y137.674 E.15319
G1 X173.033 Y137.967 E.00946
G1 X172.981 Y138.092 E.00426
G1 X176.002 Y141.113 E.13457
G1 X175.466 Y141.113 E.01688
G1 X172.805 Y138.451 E.11856
G1 X172.551 Y138.733 E.01195
G1 X174.93 Y141.112 E.10597
G1 X174.394 Y141.112 E.01688
G1 X172.209 Y138.927 E.09733
G1 X171.996 Y138.986 E.00696
G1 X171.75 Y139.004 E.00777
G1 X173.858 Y141.112 E.0939
G1 X173.322 Y141.112 E.01688
G1 X171.215 Y139.004 E.09388
G1 X170.679 Y139.004 E.01688
G1 X172.786 Y141.112 E.09388
G1 X172.251 Y141.111 E.01685
G1 X170.143 Y139.004 E.09388
G1 X169.608 Y139.004 E.01685
G1 X171.715 Y141.111 E.09386
G1 X171.179 Y141.111 E.01688
G1 X168.072 Y138.004 E.1384
G1 X167.536 Y138.004 E.01688
G1 X170.643 Y141.111 E.1384
G1 X170.107 Y141.11 E.01688
G1 X167 Y138.004 E.13838
G1 X166.465 Y138.004 E.01685
G1 X169.571 Y141.11 E.13836
G1 X169.409 Y141.11 E.0051
G1 X169.083 Y141.158 E.01038
G1 X165.929 Y138.004 E.1405
G1 X165.393 Y138.004 E.01688
G1 X168.72 Y141.331 E.1482
G1 X168.532 Y141.485 E.00765
G1 X168.448 Y141.595 E.00436
G1 X164.858 Y138.004 E.15994
G1 X164.322 Y138.004 E.01688
G1 X168.256 Y141.938 E.17524
G1 X168.193 Y142.241 E.00975
G1 X168.193 Y142.411 E.00535
G1 X163.786 Y138.004 E.19631
G1 X163.25 Y138.004 E.01688
G1 X168.192 Y142.946 E.22014
G1 X168.192 Y143.482 E.01688
G1 X162.715 Y138.004 E.244
G1 X162.179 Y138.004 E.01688
G1 X168.192 Y144.017 E.26785
G1 X168.192 Y144.553 E.01688
G1 X161.643 Y138.004 E.29173
G1 X161.108 Y138.004 E.01685
G1 X168.191 Y145.088 E.31553
G1 X168.191 Y145.624 E.01688
G1 X160.934 Y138.366 E.32329
G1 X160.699 Y138.667 E.01203
G1 X168.191 Y146.159 E.33373
G1 X168.191 Y146.694 E.01685
G1 X160.38 Y138.884 E.34792
G1 X160.164 Y138.966 E.00728
G1 X159.953 Y138.993 E.0067
G1 X168.19 Y147.23 E.36692
G1 X168.19 Y147.765 E.01685
G1 X159.429 Y139.004 E.39026
G1 X158.893 Y139.004 E.01688
G1 X168.19 Y148.301 E.41414
G1 X168.19 Y148.836 E.01685
G1 X158.358 Y139.004 E.43797
G1 X157.822 Y139.004 E.01688
G1 X159.937 Y141.12 E.09424
G1 X160.164 Y141.148 E.0072
G1 X160.42 Y141.246 E.00863
G1 X160.609 Y141.367 E.00707
G1 X160.741 Y141.485 E.00558
G1 X160.912 Y141.71 E.0089
G1 X161.018 Y141.938 E.00792
G1 X161.071 Y142.155 E.00704
G1 X161.071 Y142.253 E.00309
G1 X167.928 Y149.11 E.30545
G1 X167.392 Y149.11 E.01688
G1 X161.072 Y142.79 E.28152
G1 X161.073 Y143.327 E.01691
G1 X166.856 Y149.11 E.2576
G1 X166.321 Y149.11 E.01685
G1 X161.074 Y143.863 E.23373
G1 X161.075 Y144.4 E.01691
G1 X165.785 Y149.11 E.20981
G1 X165.249 Y149.11 E.01688
G1 X161.076 Y144.937 E.18589
G1 X161.077 Y145.473 E.01688
G1 X164.714 Y149.11 E.16201
G1 X164.178 Y149.11 E.01688
G1 X161.078 Y146.01 E.13809
G1 X161.079 Y146.547 E.01691
G1 X163.642 Y149.11 E.11417
G1 X163.106 Y149.11 E.01688
G1 X161.08 Y147.083 E.09027
G1 X161.081 Y147.62 E.01691
G1 X162.571 Y149.11 E.06637
G1 X162.035 Y149.11 E.01688
G1 X161.082 Y148.157 E.04245
G1 X161.083 Y148.693 E.01688
G1 X161.669 Y149.28 E.02613
;WIPE_START
G1 F8640
G1 X161.083 Y148.693 E-.19152
G1 X161.082 Y148.157 E-.12376
G1 X162.035 Y149.11 E-.3112
G1 X162.571 Y149.11 E-.12376
G1 X162.419 Y148.958 E-.04976
;WIPE_END
G1 Z.6 F10800
G1 X159.562 Y141.28
G1 Z.2
G1 E.8 F2100
G1 F1200
G1 X157.286 Y139.004 E.10138
G1 X156.75 Y139.004 E.01688
G1 X158.856 Y141.11 E.09381
G1 X158.321 Y141.11 E.01685
G1 X156.215 Y139.004 E.09381
G1 X155.679 Y139.004 E.01688
G1 X157.785 Y141.11 E.09381
G1 X157.249 Y141.11 E.01688
G1 X155.143 Y139.004 E.09381
G1 X154.608 Y139.004 E.01685
G1 X156.714 Y141.11 E.09381
G1 X156.178 Y141.11 E.01688
G1 X154.072 Y139.004 E.09381
G1 X153.536 Y139.004 E.01688
G1 X155.642 Y141.11 E.09381
G1 X155.106 Y141.11 E.01688
G1 X153 Y139.004 E.09381
G1 X152.465 Y139.004 E.01685
G1 X154.571 Y141.11 E.09381
M73 P1 R176
G1 X154.035 Y141.11 E.01688
G1 X151.929 Y139.004 E.09381
G1 X151.393 Y139.004 E.01688
G1 X153.499 Y141.11 E.09381
G1 X152.964 Y141.11 E.01685
G1 X150.858 Y139.004 E.09381
G1 X150.322 Y139.004 E.01688
G1 X152.428 Y141.11 E.09381
G1 X151.892 Y141.11 E.01688
G1 X149.786 Y139.004 E.09381
G1 X149.25 Y139.004 E.01688
G1 X151.356 Y141.11 E.09381
G1 X150.821 Y141.11 E.01685
G1 X148.715 Y139.004 E.09381
G1 X148.179 Y139.004 E.01688
G1 X150.285 Y141.11 E.09381
G1 X149.749 Y141.11 E.01688
G1 X147.643 Y139.004 E.09381
G1 X147.107 Y139.004 E.01688
G1 X149.214 Y141.11 E.09383
G1 X148.678 Y141.11 E.01688
G1 X146.572 Y139.004 E.09381
G1 X146.036 Y139.004 E.01688
G1 X148.142 Y141.11 E.09381
G1 X147.606 Y141.11 E.01688
G1 X145.5 Y139.004 E.09381
G1 X144.965 Y139.004 E.01685
G1 X147.071 Y141.11 E.09381
G1 X146.535 Y141.11 E.01688
G1 X144.429 Y139.004 E.09381
G1 X143.893 Y139.004 E.01688
G1 X145.999 Y141.11 E.09381
G1 X145.464 Y141.11 E.01685
